X: 6384
T: Castle Kelly
R: reel
M: 4/4
K: Aminor
|:A3 G ABcA|GE{G}E^F G2 EG|A2 cA GAcd|1 egdB cAAG:|2 egdB cAAg||
age^c dfed|cAGE G2 eg|age^c d2 =cd|eaag a3 a|
age^c dfed|cAGE G2 EG A2 cA GAcd|1 egdB cAAa:|2 egdB cAAG||

